img/exit.svg

<svg width="24" height="22" viewBox="0 0 24 22" fill="none" xmlns="http://www.w3.org/2000/svg">
<path d="M3.29253 22H14.0819C16.2499 22 17.3744 20.8619 17.3744 18.667V14.0942H15.3888V18.545C15.3888 19.4901 14.8924 20.0083 13.9097 20.0083H3.45462C2.47193 20.0083 1.98565 19.4901 1.98565 18.545V3.45497C1.98565 2.50993 2.47193 1.99169 3.45462 1.99169H13.9097C14.8924 1.99169 15.3888 2.50993 15.3888 3.45497V7.91594H17.3744V3.33303C17.3744 1.14827 16.2499 0 14.0819 0H3.29253C1.12453 0 0 1.14827 0 3.33303V18.667C0 20.8619 1.12453 22 3.29253 22ZM9.8168 11.9298H20.0287L21.5281 11.8587L20.7885 12.4887L19.279 13.9113C19.0967 14.0739 18.9954 14.3076 18.9954 14.5413C18.9954 14.9986 19.3398 15.3848 19.8058 15.3848C20.049 15.3848 20.2313 15.2831 20.4035 15.1104L23.6859 11.7062C23.919 11.4624 24 11.2388 24 10.9949C24 10.751 23.919 10.5275 23.6859 10.2836L20.4035 6.86928C20.2313 6.69654 20.049 6.60508 19.8058 6.60508C19.3398 6.60508 18.9954 6.9709 18.9954 7.43834C18.9954 7.66189 19.0967 7.90577 19.279 8.06836L20.7885 9.50115L21.5382 10.1312L20.0287 10.0499H9.8168C9.32039 10.0499 8.89489 10.4767 8.89489 10.9949C8.89489 11.5132 9.32039 11.9298 9.8168 11.9298Z" fill="#AAB8C6"/>
</svg>

<svg width="24" height="22" fill="none" xmlns="http://www.w3.org/2000/svg"><path d="M3.293 22h10.789c2.168 0 3.292-1.138 3.292-3.333v-4.573H15.39v4.451c0 .945-.497 1.463-1.48 1.463H3.456c-.983 0-1.47-.518-1.47-1.463V3.455c0-.945.487-1.463 1.47-1.463H13.91c.982 0 1.479.518 1.479 1.463v4.46h1.985V3.334C17.374 1.148 16.25 0 14.082 0H3.292C1.126 0 0 1.148 0 3.333v15.334C0 20.862 1.125 22 3.293 22zm6.524-10.07h10.212l1.5-.071-.74.63-1.51 1.422a.85.85 0 0 0-.284.63c0 .458.345.844.81.844.244 0 .426-.102.599-.275l3.282-3.404c.233-.244.314-.467.314-.711 0-.244-.081-.467-.314-.711l-3.282-3.415c-.173-.172-.355-.264-.598-.264-.466 0-.81.366-.81.833 0 .224.1.468.283.63l1.51 1.433.75.63-1.51-.081H9.817c-.497 0-.922.427-.922.945s.425.935.922.935z" fill="#AAB8C6"/></svg>
